X:1
T:Title
%%score { ( 1 3 ) | ( 2 4 ) }
L:1/8
M:4/4
K:C
V:1 treble nm="Grand Piano"
V:3 treble 
V:2 bass 
V:4 bass 
V:1
 z4 z2[Q:1/4=100] G2 | [Ec]>[Ec] [Ec]>[Ec] [Ec]>[Ec] [FA]>[FB] | [Ec]2 C2 z2 C>D | %3
 E2 E>[DF] [EG]>[Ec] [^FB]>[Fc] | d6 z2 | [Ec]>[Ec] [EB]>[Ec] d>c B>A | [Ec]2 [EG]2 z2 [EG]>[EA] | %7
 [EB]2 [EG]>[^FA] [GB]>[FA] [EG]>[_EF] |[M:7/8] E- E3 [FG]3 |[M:1/4] [G,G]2 | %10
[M:4/4] [Ee]>[Ee] [Ec]>A [G,EG]>[CE] [G,B,D]>[G,C] | [G,B,F]2 [G,B,F]2 G,2 [B,F]>[B,F] | %12
 [Ff]2 [Fd]>[FB] [FG]>[F^G] [FA]>[DF] | [CE]6 z2 | c>c c>c c>c c>c | c2 A2 z2 A>A | %16
 G2 c>c [^Fc]>[FA] [=Fd]>[Fc] |[M:3/4] c->[Ec-] [Fc-]>[Fc-] [Ec]2 |] %18
V:2
 z4 z2 G,2 | [C,G,]>[C,G,] [C,G,]>[C,G,] [C,G,]>[C,G,] [F,A,]>[F,A,] | %2
 [C,G,]2 [C,E,]2 z2 [C,E,]>[C,F,C] | [C,G,C]2 [C,G,C]>[C,G,] [C,G,]>[C,G,] [D,B,]>[D,A,] | %4
 [G,B,G]>[G,B,][K:bass] [D,A,]>[D,A,] [G,B,]2 G,2 | %5
 [C,G,]>[C,G,] [C,G,]>[C,G,] [F,A,F]>[F,A,F] [F,A,F]>[F,A,F] | [C,G,]2 [C,C]2 z2 [C,G,]>[C,G,] | %7
 [B,,G,]2 [B,,B,]>[B,,B,] [B,,B,]>[B,,B,] [B,,B,]>[B,,A,] |[M:7/8] [E,G,]- [E,G,]3 [D,B,]3 | %9
[M:1/4] G,,2 |[M:4/4] [C,G,]2 z z/ E/ C,>G, F,>E, | D,2 G,,2 D,2 [G,,G,]2 | %12
 [B,,G,]2 [G,,G,]2 [B,,G,]2 [G,,G,]2 | [C,G,]2 G,,2 C,2 C,2 | %14
 C>C [_B,CE]>[B,CE] [A,CF]>[A,CF] [G,B,E]>[G,B,E] | [F,A,F]2 [F,CF]2 z2[K:bass] [F,CF]>[F,CF] | %16
 [E,C]2 [A,CE]>[A,CE] [D,A,]>[D,C] [G,B,]>[G,,G,] |[M:3/4] G,>G, A,>A, G,2 |] %18
V:3
 x8 | x8 | x8 | x8 | z z/ G/ ^F>F =F2 G2 | x8 | x8 | x8 |[M:7/8] x7 |[M:1/4] x2 |[M:4/4] x8 | x8 | %12
 x8 | z2 G,2 G,2 C2 | x8 | x8 | x8 |[M:3/4] E2 z2 z2 |] %18
V:4
 x8 | x8 | x8 | x8 | x2[K:bass] x6 | x8 | x8 | x8 |[M:7/8] x7 |[M:1/4] x2 |[M:4/4] z2 [G,,G,]2 z4 | %11
 x8 | x8 | x8 | x8 | x6[K:bass] x2 | x8 |[M:3/4] C,6 |] %18

